X:55
T:Comett Waltz
O:No 55 Wm Clarke of Feltwell  MS 1858
N:Bar 16: extra note d omitted
I:abc2nwc
M:3/8
L:1/16
K:D
de|f2 fg fe|d2 de dc|B2c2d2|A4f2|(g2f2)e2|b2a2c2|(e2d2)d2|d4:|
|:f2|ga gf ed|c2e2g2|f2d2A2|F2G2A2|B2c2d2|(ef)g2"^*"e2|d4"^*"A2|f2fgfe|
d2dedc|B2c2d2|A4f2|(g2f2)e2|(b2a2)c2|e2d2d2|d4:|
|:AG|F2A2d2|d2c2B2|c2e2a2|g4f2|g2f2g2|B2e2d2|cd ed cB|AB AG FE|
F2A2d2|d2c2B2|c2e2a2|g4f2|g2f2g2|B2e2d2|dc BA Bc|d4:|

